!!!COM: Beethoven, Ludwig van
!!!CDT: 1770///-1827///
!!!OTL: Piano Sonata no. 8 in C minor
!!!OTP: path&eacute;tique
!!!OPS: 13
!!!OMV: 1
!!!OMD: Grave
**kern	**kern	**dynam
*staff2	*staff1	*staff1
*Ipiano	*Ipiano	*Ipiano
*>[I,A,A1,A,A2,B]	*>[I,A,A1,A,A2,B]	*>[I,A,A1,A,A2,B]
*>norep[I,A,A2,B]	*>norep[I,A,A2,B]	*>norep[I,A,A2,B]
*>I	*>I	*>I
*clefF4	*clefG2	*clefG2
*k[b-e-a-]	*k[b-e-a-]	*k[b-e-a-]
*c:	*c:	*c:
*met(c)	*met(c)	*met(c)
*M4/4	*M4/4	*M4/4
*MM40	*MM40	*MM40
=1-	=1-	=1-
[4CC/ [4EE-/ [4GG/ [4C/	[4E-/ [4G/ [4c/	.
16.CC/] 16.EE-/] 16.GG/] 16.C/LL]	16.E-/] 16.G/] 16.c/LL]	.
32E-/k	32G/ 32c/k	.
16.D/	16.G/ 16.Bn/ 16.d/	.
32C/JJk	32G/ 32c/ 32e-/JJk	.
(4F#\	(4An/ 4c/ 4e-/	.
8G\)	8B/) 8d/	.
16.r	8r	.
32AA-/	.	.
=2	=2	=2
[4A-\	[4Bn/ [4d/ [4f/	.
16.A-\LL]	16.B/] 16.d/] 16.f/LL]	.
32A-\k	32B/ 32d/ 32f/k	.
16.G\	16.B/ 16.d/ 16.g/	.
32Fn\JJk	32B/ 32d/ 32a-/JJk	.
[4E-\	(4B/ 4d/ 4a-/	.
8E-\]	8c/) 8e-/ 8g/	.
16.r	8r	.
32E-'\	.	.
=3	=3	=3
[4e-\	[4f#/ [4an/ [4cc/	.
16.e-\LL]	16.f#/] 16.a/] 16.cc/LL]	.
32e-\k	32f#/ 32a/ 32cc/k	.
16.d\	16.f#/ 16.a/ 16.dd/	.
32c\JJk	32f#/ 32a/ 32ee-/JJk	.
(4c\	4f#\ 4a\ (4ee-\	.
16Bn'\LL)	16d'/ 16g'/ 16dd'/LL)	.
32r	32r	.
32e-\k	32f#/ 32a/ 32cc/K	.
16.d\	16.f#/ 16.a/ 16.dd/	.
32c\JJk	32f#/ 32a/ 32ee-/JJk	.
=4	=4	=4
(4c\	4f#\ 4an\ (4ee-\	.
8Bn\	8d/ 8g/ 8dd/L	p
8B-\ 8c\ 8en\	8g/ 8cc/ 8een/J	.
8A-'\ 8c'\ 8fn'\)	8a-'\ 8cc'\ 8ff'\L)	.
8r	[8aa-\J	.
4BBB-/ 4BB-/	(32aa-\LLL]	.
.	96gg\L	.
.	96aa-\	.
.	96bb-\	.
.	96aa-\	.
.	96gg\	.
.	96ff\JJJJ	.
.	64ee-\LLLL	.
.	64dd\	.
.	64cc\	.
.	64b-\JJJJ	.
.	96a-/LLLL	.
.	96g/	.
.	96fn/	.
.	96e-/	.
.	96d/	.
.	96f/	.
.	96a-/	.
.	96f/	.
.	96d/JJJJ	.
=5	=5	=5
16EE-/ 16E-/	8e-'/)	p
16E-\ 16G\ 16B-\LL	.	.
16E-\ 16G\ 16B-\	[8e-/ [8ee-/	.
16E-\ 16G\ 16B-\JJ	.	.
16E-\ 16G\ 16B-\LL	16.e-\] 16.ee-\LL]	.
16E-\ 16G\ 16B-\	.	.
.	32e-\ 32ee-\k	.
16E-\ 16G\ 16B-\	16.f\ 16.ff\	.
16E-\ 16G\ 16B-\JJ	.	.
.	32g\ 32gg\JJk	.
16E-\ 16A-\ 16c\LL	8g\ (8gg\L	.
16E-\ 16A-\ 16c\	.	.
16E-\ 16A-\ 16c\	16f\ 16ff\Jk)	.
16E-\ 16A-\ 16c\JJ	32r	.
*	*clefF4	*clefF4
.	32f\	ff
16DD/ 16D/LL	16.F\ 16.A-\ 16.Bn\ 16.f\LL	.
16DD/ 16D/	.	.
.	32F\ 32A-\ 32B\ 32f\k	.
16CC/ 16C/	16.F\ 16.A-\ 16.c\ 16.f\	.
16CC/ 16C/JJ	.	.
.	32F\ 32A-\ 32c\ 32f\JJk	.
=6	=6	=6
16BBBn/ 16BBn/	8F\ 8A-\ 8d\ 8f\	p
16BB\ 16D\ 16F\ 16A-\LL	.	.
*	*clefG2	*clefG2
16BB\ 16D\ 16F\ 16A-\	[8f\ [8ff\	.
16BB\ 16D\ 16F\ 16A-\JJ	.	.
16BB-\ 16D\ 16F\ 16A-\LL	16.f\] 16.ff\LL]	.
16BB-\ 16D\ 16F\ 16A-\	.	.
.	32f\ 32ff\k	.
16BB-\ 16D\ 16F\ 16A-\	16.g\ 16.gg\	.
16BB-\ 16D\ 16F\ 16A-\JJ	.	.
.	32a-\ 32aa-\JJk	.
16BB-\ 16C#\ 16En\ 16G\LL	8a-\ (8aa-\L	.
16BB-\ 16C#\ 16E\ 16G\	.	.
16BB-\ 16C#\ 16E\ 16G\	16g\ 16gg\Jk)	.
16BB-\ 16C#\ 16E\ 16G\JJ	32r	.
.	32G/ 32c#/ 32en/ 32g/	ff
16AAAn/ 16AAn/LL	16.An/ 16.c#/ 16.e/ 16.an/LL	.
16AAA/ 16AA/	.	.
.	32A/ 32c#/ 32e/ 32a/k	.
16GGG/ 16GG/	16.B-/ 16.c#/ 16.e/ 16.b-/	.
16GGG/ 16GG/JJ	.	.
.	32B-/ 32c#/ 32e/ 32b-/JJk	.
=7	=7	=7
16FFF#/ 16FF#/	8An/ 8d/ 8f#/ 8an/	.
16F#\ 16An\ 16d\LL	.	.
16F#\ 16A\ 16d\	[8an\ [8aan\	p
16F#\ 16A\ 16d\JJ	.	.
16F#\ 16A\ 16d\LL	16.a\] 16.aa\LL]	.
16F#\ 16A\ 16d\	.	.
.	32a\ 32aa\k	.
16F#\ 16A\ 16d\	16.bn\ 16.bbn\	.
16F#\ 16A\ 16d\JJ	.	.
.	32cc\ 32ccc\JJk	.
16Fn\ 16A-\ 16d\LL	8cc\ (8ccc\L	.
16F\ 16A-\ 16d\	.	.
16F\ 16A-\ 16d\	16b\ 16bb\Jk)	.
16F\ 16A-\ 16d\JJ	16r	.
16D\ 16F\ 16Bn\LL	8r	.
16D\ 16F\ 16B\	.	.
16D\ 16F\ 16B\	16.b\ 16.bb\LL	.
16D\ 16F\ 16B\JJ	.	.
.	32cc\ 32ccc\JJk	.
=8	=8	=8
16BBn\ 16D\ 16A-\LL	8cc#\ (8ccc#\L	.
16BB\ 16D\ 16A-\	.	.
16BB\ 16D\ 16A-\	8dd\ 8ddd\J)	.
16BB\ 16D\ 16A-\JJ	.	.
16AA-/ 16BB/ 16F/LL	8r	.
16AA-/ 16BB/ 16F/	.	.
16AA-/ 16BB/ 16F/	16.dd\ 16.ddd\LL	.
16AA-/ 16BB/ 16F/JJ	.	.
.	32ee-\ 32eee-\JJk	.
16GG/ 16BB/ 16F/LL	8een\ (8eeen\	.
16GG/ 16BB/ 16F/	.	.
16GG/ 16BB/ 16F/	4ff\ 4fff\)	.
16GG/ 16BB/ 16F/JJ	.	.
16AA-/ 16C/ 16F/LL	.	.
16AA-/ 16C/ 16F/	.	.
16AA-/ 16C/ 16F/	8ff\ 8fff\	.
16AA-/ 16C/ 16F/JJ	.	.
=9	=9	=9
8GG'/ 8BBn'/ 8F'/	[8ff\ [8fff\	.
8r	32ff\] 32fff\LLL]	.
.	64eee-\L	.
.	64ddd\	.
.	64fff\	.
.	64eee-\	.
.	64ddd\	.
.	64cccn\JJJJ	.
8r	(16bbn'\LL	.
.	16bb'\	.
*clefG2	*	*
16g'\ (16dd'\LL	16ff'\ 16bb'\	.
16g'\ 16dd'\JJ)	16ff'\ 16bb'\JJ)	.
8a-\ 8cc\	8ee-\ 8ccc\	.
8r	8r	.
4r	4r	.
*clefF4	*	*
=10	=10	=10
4r	[8ccc\L	p
.	32ccc\LL]	.
.	(64bbn\L	.
.	64ccc\JJJJ	.
.	96ddd\LLLL	.
.	96ccc\	.
.	96bb-\	.
.	96aa-\	.
.	96gg\	.
.	(96bb-\JJJJ)	.
8r	16aa-'\LL	.
.	16aa-'\	.
16F'\ 16c'\ (16d'\LL	16aa-'\	.
16F'\ 16c'\ 16d'\JJ)	16aa-'\JJ)	.
8G\ 8c\ 8e-\	16gg\LL	.
.	[16eee-\JJ	.
8r	96eee-\LLLL]	.
.	96ddd\	.
.	96ddd-\	.
.	96ccc\	.
.	96bbn\	.
.	96bb-\JJJJ	.
.	112aan\LLLL	.
.	112aa-\	.
.	112gg\	.
.	112ff#\	.
.	112ffn\	.
.	112een\	.
.	112ee-\JJJJ	.
8GG/ 8D/ 8F/	(128dd/LLLL	.
.	128dd-/	.
.	128cc/	.
.	128bn/	.
.	128b-/	.
.	128an/	.
.	128a-/	.
.	128g/	.
.	128f#/	.
.	128fn/	.
.	128en/	.
.	128e-/	.
.	128d/	.
.	128d-/	.
.	128c/	.
.	128Bn/JJJJ)	.
8r;	16.a-;/LL	.
.	32B/JJk	.
=11	=11	=11
*>A	*>A	*>A
*M2/2	*M2/2	*M2/2
*MM320	*MM320	*MM320
8CC/L	2.c/	p
8C/	.	.
8CC/	.	.
8C/J	.	.
8CC/L	.	.
8C/	.	.
8CC/	4B-'/ 4en'/	.
8C/J	.	.
=12	=12	=12
8CC/L	4A-'/ 4f'/	.
8C/	.	.
8CC/	4en'/ 4g'/	.
8C/J	.	.
8CC/L	4f'/ 4a-'/	.
8C/	.	.
8CC/	4d'/ 4bn'/	.
8C/J	.	.
=13	=13	=13
8CC/L	4e-'/ 4cc'/	.
8C/	.	.
8CC/	2en/ 2cc/	.
8C/J	.	.
8CC/L	.	.
8C/	.	.
8CC/	4b-'\ 4een'\	.
8C/J	.	.
=14	=14	=14
8CC/L	4a-'\ 4ff'\	.
8C/	.	.
8CC/	4een'\ 4gg'\	.
8C/J	.	.
8CC/L	4ff'\ 4aa-'\	.
8C/	.	.
8CC/	4dd'\ 4bbn'\	.
8C/J	.	.
=15	=15	=15
8CC/L	2cc'\ 2ee-'\ 2gg'\ 2ccc'\	<
8C/	.	.
8CC/	.	.
8C/J	.	.
8DD/L	2g'\ 2bn'\ 2ff'\ 2gg'\	.
8D/	.	.
8DD/	.	.
8D/J	.	.
=16	=16	=16
8EE-/L	2g'\ 2cc'\ 2ee-'\	.
8E-/	.	.
8EE-/	.	.
8E-/J	.	.
8FF/L	2f'/ 2a-'/ 2dd'/	.
8F/	.	.
8FF/	.	.
8F/J	.	.
=17	=17	=17
*	*^	*
8GG/L	[1e- ([1cc	2g\	.
8G/	.	.	.
8GG/	.	.	.
8G/J	.	.	.
8AA-\L	.	2f#\	.
8A-\	.	.	.
8AA-\	.	.	.
8A-\J	.	.	.
=18	=18	=18	=18
8FF#/L	2e-/] 2cc/]	2an\	.
8F#/	.	.	.
8FF#/	.	.	.
8F#/J	.	.	.
8GG/L	2d/ 2f/ 2bn/	2r	.
8G/	.	.	.
8GG/	.	.	.
8G/J	.	.	.
*	*v	*v	*
=19	=19	=19
8CC/L	4c'/ 4e-'/ 4cc'/)	p
8C/	.	.
8CC/	2c/	.
8C/J	.	.
8CC/L	.	.
8C/	.	.
8CC/	4B-'/ 4en'/	.
8C/J	.	.
=20	=20	=20
8CC/L	4A-'/ 4f'/	.
8C/	.	.
8CC/	4en'/ 4g'/	.
8C/J	.	.
8CC/L	4f'/ 4a-'/	.
8C/	.	.
8CC/	4d'/ 4bn'/	.
8C/J	.	.
=21	=21	=21
8CC/L	4e-'/ 4cc'/	.
8C/	.	.
8CC/	2en/ 2cc/	.
8C/J	.	.
8CC/L	.	.
8C/	.	.
8CC/	4b-'\ 4een'\	.
8C/J	.	.
=22	=22	=22
8CC/L	4a-'\ 4ff'\	.
8C/	.	.
8CC/	4een'\ 4gg'\	.
8C/J	.	.
8CC/L	4ff'\ 4aa-'\	.
8C/	.	.
8CC/	4dd'\ 4bbn'\	.
8C/J	.	.
=23	=23	=23
8CC/L	2cc'\ 2ee-'\ 2gg'\ 2ccc'\	<
8C/	.	.
8CC/	.	.
8C/J	.	.
8DD/L	2g'\ 2bn'\ 2ff'\ 2gg'\	.
8D/	.	.
8DD/	.	.
8D/J	.	.
=24	=24	=24
8EE-/L	2g'\ 2cc'\ 2ee-'\	.
8E-/	.	.
8EE-/	.	.
8E-/J	.	.
8FF/L	2f'/ 2a-'/ 2dd'/	.
8F/	.	.
8FF/	.	.
8F/J	.	.
=25	=25	=25
*	*^	*
8GG/L	1e- 1cc	2g\	.
8G/	.	.	.
8GG/	.	.	.
8G/J	.	.	.
8AA-\L	.	2f#\	.
8A-\	.	.	.
8AA-\	.	.	.
8A-\J	.	.	.
*	*v	*v	*
=26	=26	=26
8FF#/L	1e- 1an 1cc	.
8F#/	.	.
8FF#/	.	.
8F#/J	.	.
8FF#/L	.	.
8F#/	.	.
8FF#/	.	.
8F#/J	.	.
=27	=27	=27
4GG/ 4G/	4d'/ 4g'/ 4bn'/	p
4Bn\ 4d\	4r	.
4B\ 4d\	[2g\ [2gg\	.
4B\ 4d\	.	.
=28	=28	=28
4G\	4g\] 4gg\]	.
4c\ 4e-\	4r	.
4c\ 4e-\	[2g\ [2gg\	.
4c\ 4e-\	.	.
=29	=29	=29
4d\ 4f\	8g\] 8gg\L]	.
.	8ff\	.
4r	8dd\	.
.	8bn\J	.
2r	8g/L	.
.	8f/	.
.	8d/	.
.	8Bn/J	.
=30	=30	=30
2r	8c/L	.
.	8e-/	.
.	8c/	.
.	8G/J	.
8AAA-/L	8F#/L	.
8AA-/	8c/	.
8AAA-/	8A-/	.
8AA-/J	8F#/J	.
=31	=31	=31
4GGG'/ 4GG'/	4G'/	.
4Bn\ 4d\	4r	.
4B\ 4d\	[2g\ [2gg\	.
4B\ 4d\	.	.
=32	=32	=32
4G\	4g\] 4gg\]	.
4c\ 4e-\	4r	.
4c\ 4e-\	[2g\ [2gg\	.
4c\ 4e-\	.	.
=33	=33	=33
4d\ 4f\	8g\] 8gg\L]	.
.	8ff\	.
4r	8dd\	.
.	8bn\J	.
2r	8g/L	.
.	8f/	.
.	8d/	.
.	8Bn/J	.
=34	=34	=34
2r	8c/L	.
.	8e-/	.
.	8c/	.
.	8G/J	.
8AAA-/L	8F#/L	.
8AA-/	8c/	.
8AAA-/	8A-/	.
8AA-/J	8F#/J	.
=35	=35	=35
8GGG/L	4G'/	.
8GG/	.	.
8GGG/	4f#'/	.
8GG/J	.	.
8GGG/L	4g'/	.
8GG/	.	.
8GGG/	4f#'/ 4cc'/	.
8GG/J	.	.
=36	=36	=36
8GGG/L	4g'/ 4bn'/	.
8GG/	.	.
8GGG/	4cc'\ 4ff#'\	.
8GG/J	.	.
8GGG/L	4b'\ 4gg'\	.
8GG/	.	.
8GGG/	4ff#'\ 4ccc'\	.
8GG/J	.	.
=37	=37	=37
8GGG/L	4gg'\ 4bbn'\	.
8GG/	.	.
8GGG/	4r	.
8GG/J	.	.
8GGG/L	2r	.
8GG/	.	.
8GGG/	.	.
8GG/J	.	.
=38	=38	=38
8GGG/L	1B- 1d- [1e-	.
8GG/	.	.
8GGG/	.	.
8GG/J	.	.
8GGG/L	.	.
8GG/	.	.
8GGG/	.	.
8GG/J	.	.
=39	=39	=39
8AAA-/L	4c/ 4e-/]	.
8AA-/	.	.
8AAA-/	4dd-'\	.
8AA-/J	.	.
8AAA-/L	4cc'\	.
8AA-/	.	.
8AAA-/	4dd-'\ 4gg'\	.
8AA-/J	.	.
=40	=40	=40
8AAA-/L	4cc'\ 4aa-'\	.
8AA-/	.	.
8AAA-/	4gg'\ 4ddd-'\	.
8AA-/J	.	.
8AAA-/L	4aa-'\ 4ccc'\	.
8AA-/	.	.
8AAA-/	4gg'\ 4ddd-'\	.
8AA-/J	.	.
=41	=41	=41
8AAA-/L	4aa-'\ 4ccc'\	.
8AA-/	.	.
8AAA-/	4r	.
8AA-/J	.	.
8AAA-/L	2r	.
8AA-/	.	.
8AAA-/	.	.
8AA-/J	.	.
=42	=42	=42
8AAAn/L	(1c 1e- 1g-	.
8AAn/	.	.
8AAA/	.	.
8AA/J	.	.
8AAA/L	.	.
8AA/	.	.
8AAA/	.	.
8AA/J	.	.
=43	=43	=43
8BBB-/L	4dn/) 4f/	.
8BB-/	.	.
8BBB-/	4an'\ 4ee-'\	.
8BB-/J	.	.
8BBB-/L	4b-'\ 4dd'\	.
8BB-/	.	.
8BBB-/	4ee-'\ 4aan'\	.
8BB-/J	.	.
=44	=44	=44
8BBB-/L	4dd'\ 4bb-'\	.
8BB-/	.	.
8BBB-/	4aan'\ 4eee-'\	.
8BB-/J	.	.
8BBB-/L	4bb-'\ 4ddd'\	.
8BB-/	.	.
8BBB-/	4aa'\ 4eee-'\	.
8BB-/J	.	.
=45	=45	=45
8BBB-/L	4bb-'\ 4ddd'\	.
8BB-/	.	.
8BBB-/	4r	.
8BB-/J	.	.
8BBB-/L	2ee-\ (2aan\	.
8BB-/	.	.
8BBB-/	.	.
8BB-/J	.	.
=46	=46	=46
8BBB-/L	4dd\ 4bb-\)	.
8BB-/	.	.
8BBB-/	4r	.
8BB-/J	.	.
8BBB-/L	2an\ (2ee-\	.
8BB-/	.	.
8BBB-/	.	.
8BB-/J	.	.
=47	=47	=47
8BBB-/L	4b-\ 4dd\)	.
8BB-/	.	.
8BBB-/	4r	.
8BB-/J	.	.
8BBB-/L	(2e-/ 2an/	.
8BB-/	.	.
8BBB-/	.	.
8BB-/J	.	.
=48	=48	=48
8BBB-/L	4d/) 4b-/	.
8BB-/	.	.
8BBB-/	4r	.
8BB-/J	.	.
8BBB-/L	(2An/ 2e-/	.
8BB-/	.	.
8BBB-/	.	.
8BB-/J	.	.
=49	=49	=49
4BBB-/ 4BB-/	4B-/) 4d/	.
4r	(4An/	p
2r	4B-/	.
.	4A/	.
=50	=50	=50
1r	4B-/	.
.	4An/	.
.	4B-/	.
.	4A/)	.
*clefG2	*clefF4	*clefF4
=51	=51	=51
*^	*	*
4r	1B-	4r	.
4e-/ 4g-/	.	4BB-'/	.
4e-/ 4g-/	.	4E-'\	.
4e-/ 4g-/	.	4F'\	.
=52	=52	=52	=52
4r	1B-	4G-'\	.
*	*	*clefG2	*clefG2
4e-/ 4g-/	.	4b-'\	.
4e-/ 4g-/	.	4ee-'\	.
4e-/ 4g-/	.	4ff'\	.
=53	=53	=53	=53
.	.	b-q/	.
4r	1B-	(2.gg-\	.
4e-/ 4g-/	.	.	.
4e-/ 4g-/	.	.	.
4e-/ 4g-/	.	4ee-\)	.
=54	=54	=54	=54
.	.	b-q/	.
4r	1B-	(2.gg-\	.
4e-/ 4g-/	.	.	.
4e-/ 4g-/	.	.	.
4e-/ 4g-/	.	4ee-\)	.
=55	=55	=55	=55
4r	1B-	4dd'\	.
*	*	*clefF4	*clefF4
4f/ 4a-/	.	4BB-'/	.
4f/ 4a-/	.	4F'\	.
4f/ 4a-/	.	4G-'\	.
=56	=56	=56	=56
4r	1B-	4A-'\	.
*	*	*clefG2	*clefG2
4f/ 4a-/	.	(4b-\	.
4f/ 4a-/	.	4aa-\	.
4f/ 4a-/	.	4gg-\)	.
=57	=57	=57	=57
4r	1B-	(4gg-\	.
4f/ 4a-/	.	4ff\)	.
4f/ 4a-/	.	(4ff\	.
4f/ 4a-/	.	4ee-\)	.
=58	=58	=58	=58
4r	1B-	(4ee-\	.
4f/ 4a-/	.	4dd\)	.
4f/ 4a-/	.	4cc'\	.
4f/ 4a-/	.	4dd'\	.
=59	=59	=59	=59
4r	1B-	4ee-'\	.
*	*	*clefF4	*clefF4
4e-/ 4g-/	.	4BB-'/	.
4e-/ 4g-/	.	4E-'\	.
4e-/ 4g-/	.	4F'\	.
=60	=60	=60	=60
4r	1B-	4G-'\	.
*	*	*clefG2	*clefG2
4e-/ 4g-/	.	4b-'\	.
4e-/ 4g-/	.	4ee-'\	.
4e-/ 4g-/	.	4ff'\	.
=61	=61	=61	=61
.	.	b-q/	.
4r	1B-	(2.gg-\	.
4e-/ 4g-/	.	.	.
4e-/ 4g-/	.	.	.
4e-/ 4g-/	.	4ee-\)	.
=62	=62	=62	=62
.	.	b-q/	.
4r	1B-	(2.gg-\	.
4e-/ 4g-/	.	.	.
4e-/ 4g-/	.	.	.
4e-/ 4g-/	.	4ee-\)	.
=63	=63	=63	=63
4r	1A-	4cc'\	.
*	*	*clefF4	*clefF4
4e-/ 4g-/	.	4AA-'/	.
4e-/ 4g-/	.	4E-'\	.
4e-/ 4g-/	.	4F'\	.
=64	=64	=64	=64
4r	1A-	4G-'\	.
*	*	*clefG2	*clefG2
4e-/ 4g-/	.	(4a-/	.
4e-/ 4g-/	.	4gg-\	.
4e-/ 4g-/	.	4ff\)	.
=65	=65	=65	=65
4r	1A-	(4ff\	.
4e-/ 4g-/	.	4ee-\)	.
4e-/ 4g-/	.	(4ee-\	.
4e-/ 4g-/	.	4dd-\)	.
=66	=66	=66	=66
4r	1A-	(4dd-\	.
4e-/ 4g-/	.	4cc\)	.
4e-/ 4g-/	.	4b-'\	.
4e-/ 4g-/	.	4cc'\	.
=67	=67	=67	=67
4r	1A-	4dd-\	.
*	*	*clefF4	*clefF4
4d-/ 4f/	.	4AA-'/	.
4d-/ 4f/	.	4D-'\	.
4d-/ 4f/	.	4E-'\	.
=68	=68	=68	=68
4r	1A-	4F'\	.
*	*	*clefG2	*clefG2
4d-/ 4f/	.	4a-'/	.
4d-/ 4f/	.	4dd-'\	.
4d-/ 4f/	.	4ee-'\	.
=69	=69	=69	=69
.	.	a-q/	.
4r	1A-	(2.ff\	.
4d-/ 4f/	.	.	.
4d-/ 4f/	.	.	.
4d-/ 4f/	.	4dd-\)	.
=70	=70	=70	=70
.	.	a-q/	.
4r	1A-	(2.ff\	.
4d-/ 4f/	.	.	.
4d-/ 4f/	.	.	.
4d-/ 4f/	.	4dd-\)	.
=71	=71	=71	=71
4r	1A-	4cc'\	.
*	*	*clefF4	*clefF4
4e-/ 4g-/	.	4AA-'/	.
4e-/ 4g-/	.	4E-'\	.
4e-/ 4g-/	.	4F'\	.
=72	=72	=72	=72
4r	1A-	4G-'\	.
*	*	*clefG2	*clefG2
4e-/ 4g-/	.	(4a-/	.
4e-/ 4g-/	.	4gg-\	.
4e-/ 4g-/	.	4ff\)	.
=73	=73	=73	=73
4r	1A-	(4ff\	.
4e-/ 4g-/	.	4ee-\)	.
4e-/ 4g-/	.	(4ee-\	.
4e-/ 4g-/	.	4dd-\)	.
=74	=74	=74	=74
4r	1A-	(4dd-\	.
4e-/ 4g-/	.	4cc\)	.
4e-/ 4g-/	.	4b-'\	.
4e-/ 4g-/	.	4cc'\	.
=75	=75	=75	=75
4r	2d-\	4dd-\	.
*	*	*clefF4	*clefF4
4f/ 4a-/	.	(4D-\	.
4r	2c-\	4A-\)	.
4f/ 4a-/	.	4C-'/	.
=76	=76	=76	=76
4r	1B-	4BB-'/	.
*	*	*clefG2	*clefG2
4f/ 4a-/	.	(4b-\	.
4f/ 4a-/	.	4aa-\	.
4f/ 4a-/	.	4gg-\)	.
=77	=77	=77	=77
4r	1B-	(4gg-\	.
4f/ 4a-/	.	4ff\)	.
4f/ 4a-/	.	(4ff\	.
4f/ 4a-/	.	4ee-\)	.
=78	=78	=78	=78
4r	1B-	(4ee-\	.
4f/ 4a-/	.	4ddn\)	.
4f/ 4a-/	.	4cc'\	.
4f/ 4a-/	.	4dd'\	.
=79	=79	=79	=79
4r	2e-\	4ee-'\	.
*	*	*clefF4	*clefF4
4g-/ 4b-/	.	(4E-\	.
4r	2d-\	4B-\)	.
4f/ 4b-/	.	4D-'\	.
=80	=80	=80	=80
4r	1c	4C'/	.
*	*	*clefG2	*clefG2
4gn/ 4b-/	.	(4cc\	.
4g/ 4b-/	.	4bb-\	.
4g/ 4b-/	.	4aa-\)	.
=81	=81	=81	=81
4r	1c	(4aa-\	.
4g/ 4b-/	.	4ggn\)	.
4g/ 4b-/	.	(4gg\	.
4g/ 4b-/	.	4ff\)	.
=82	=82	=82	=82
4r	1c	(4ff\	.
4g/ 4b-/	.	4een\)	.
4g/ 4b-/	.	(4ddn\	.
4g/ 4b-/	.	4ee\)	.
=83	=83	=83	=83
4r	1f	(4gg\	.
4a-/	.	4ff\)	.
4a-/	.	(4ff\	.
4a-/	.	4ee-\)	.
=84	=84	=84	=84
4r	2B-\	(4ee-\	.
4f/ 4a-/	.	4dd\)	.
4f/ 4a-/	2Bn\	(4cc\	.
4f/ 4a-/	.	4dd\)	.
=85	=85	=85	=85
4r	1c	(4ff\	.
4e-/ 4g/	.	4ee-\)	.
4e-/ 4g/	.	(4ee-\	.
4e-/ 4g/	.	4dd\)	.
=86	=86	=86	=86
4r	1A-	(4dd\	.
4e-/ 4f/	.	4cc\)	.
4e-/ 4f/	.	(4cc\	.
4e-/ 4f/	.	4bn\)	.
=87	=87	=87	=87
4r	1B-	(4cc\	.
4e-/ 4g/	.	4b-\)	.
4e-/ 4g/	.	4b-'\	.
4e-/ 4g/	.	4b-'\	.
=88	=88	=88	=88
4r	1B-	(4cc\	pp
4d/ 4f/	.	4b-\)	.
4d/ 4f/	.	4b-'\	.
4d/ 4f/	.	4b-'\	.
*v	*v	*	*
*clefF4	*	*
=89	=89	=89
*^	*^	*
8r	[1E-	2r	8r	.
8B-/L	.	.	8e-\L	p
8G/	.	.	8g\	.
8B-/J	.	.	8e-\J	.
8G/L	.	[2ee-/	8ee-\L	.
8B-/	.	.	8e-\	.
8G/	.	.	8g\	.
8B-/J	.	.	8e-\J	.
=90	=90	=90	=90	=90
8G/L	2E-\]	2ee-/]	8g\L	.
8B-/	.	.	8e-\	.
8G/	.	.	8g\	.
8B-/J	.	.	8e-\J	.
8r	2E-\	2ee-/	8r	.
8B-/L	.	.	8e-\L	.
8G/	.	.	8g\	.
8B-/J	.	.	8e-\J	.
=91	=91	=91	=91	=91
8r	[1D-	2r	8r	.
8B-/L	.	.	8e-\L	.
8G/	.	.	8g\	.
8B-/J	.	.	8e-\J	.
8G/L	.	[2ee-/	8ee-\L	.
8B-/	.	.	8e-\	.
8G/	.	.	8g\	.
8B-/J	.	.	8e-\J	.
=92	=92	=92	=92	=92
8G/L	2D-\]	2ee-/]	8g\L	.
8B-/	.	.	8e-\	.
8G/	.	.	8g\	.
8B-/J	.	.	8e-\J	.
8r	2D-\	2ee-/	8r	.
8B-/L	.	.	8e-\L	.
8G/	.	.	8g\	.
8B-/J	.	.	8e-\J	.
*v	*v	*	*	*
*	*v	*v	*
=93	=93	=93
8C'\L	8ee-'/L	.
8A-\	8e-/	.
8E-\	8a-/	.
8A-\J	8e-/J	.
8BB-'\L	8een'/L	.
8G\	8en/	.
8C\	8cc/	.
8G\J	8e/J	.
=94	=94	=94
8AA-'\L	8ff'/L	.
8A-\	8f/	.
8C\	8cc/	.
8A-\J	8f/J	.
8GG'\L	8gg'\L	.
8G\	8g\	.
8C\	8cc\	.
8G\J	8g\J	.
=95	=95	=95
8FF'/L	8aa-'\L	.
8F/	8a-\	.
8C/	8cc\	.
8F/J	8a-\J	.
8EE-'/L	8aan'\L	.
8E-/	8an\	.
8FF/	8cc\	.
8E-/J	8a\J	.
=96	=96	=96
8DD'/L	8bb-'\L	.
8D/	8b-\	.
8FF/	8ff\	.
8D/J	8b-\J	.
8CC'/L	8ccc'\L	.
8C/	8cc\	.
8FF/	8ff\	.
8C/J	8cc\J	.
=97	=97	=97
8BBB-'/L	8ddd-'\L	.
8BB-/	8dd-\	.
8FF/	8ff\	.
8BB-/J	8dd-\J	.
8AAA-'/L	8dddn'\L	.
8AA-/	8ddn\	.
8FF/	8ff\	.
8AA-/J	8dd\J	.
=98	=98	=98
8GGG'/L	8eee-'\L	.
8GG/	8ee-\	.
8EE-/	8gg\	.
8GG/J	8ee-\J	.
8GGG'/L	8bbn'\L	.
8GG/	8bn\	.
8EE-/	8ee-\	.
8GG/J	8b\J	.
=99	=99	=99
4AAA-'/ 4AA-'/	8r	.
.	8cc\L	f
4r	8ee-\	.
.	8cc\J	.
2r	8ccc\L	.
.	8cc\	.
.	8ee-\	.
.	8cc\J	.
=100	=100	=100
4BBB-'/ 4BB-'/	8r	.
.	8f/L	.
4r	8a-/	.
.	8f/J	.
2r	8dd/L	.
.	8f/	.
.	8a-/	.
.	8f/J	.
=101	=101	=101
*^	*^	*
8r	[1E-	2r	8r	.
8B-/L	.	.	8e-\L	p
8G/	.	.	8g\	.
8B-/J	.	.	8e-\J	.
8G/L	.	[2ee-/	8ee-\L	.
8B-/	.	.	8e-\	.
8G/	.	.	8g\	.
8B-/J	.	.	8e-\J	.
=102	=102	=102	=102	=102
8G/L	2E-\]	2ee-/]	8g\L	.
8B-/	.	.	8e-\	.
8G/	.	.	8g\	.
8B-/J	.	.	8e-\J	.
8r	2E-\	2ee-/	8r	.
8B-/L	.	.	8e-\L	.
8G/	.	.	8g\	.
8B-/J	.	.	8e-\J	.
=103	=103	=103	=103	=103
8r	1D-	2r	8r	.
8B-/L	.	.	8e-\L	.
8G/	.	.	8g\	.
8B-/J	.	.	8e-\J	.
8G/L	.	[2ee-/	8ee-\L	.
8B-/	.	.	8e-\	.
8G/	.	.	8g\	.
8B-/J	.	.	8e-\J	.
=104	=104	=104	=104	=104
8G/L	2D\	2ee-/]	8g\L	.
8B-/	.	.	8e-\	.
8G/	.	.	8g\	.
8B-/J	.	.	8e-\J	.
8r	2D-\	2ee-/	8r	.
8B-/L	.	.	8e-\L	.
8G/	.	.	8g\	.
8B-/J	.	.	8e-\J	.
*v	*v	*	*	*
*	*v	*v	*
=105	=105	=105
8C'\L	8ee-'/L	.
8A-\	8e-/	.
8E-\	8a-/	.
8A-\J	8e-/J	.
8BB-'\L	8een'/L	.
8G\	8en/	.
8C\	8cc/	.
8G\J	8e/J	.
=106	=106	=106
8AA-'\L	8ff'/L	.
8A-\	8f/	.
8C\	8cc/	.
8A-\J	8f/J	.
8GG'\L	8gg'\L	.
8G\	8g\	.
8C\	8cc\	.
8G\J	8g\J	.
=107	=107	=107
8FF'/L	8aa-'\L	.
8F/	8a-\	.
8C/	8cc\	.
8F/J	8a-\J	.
8EE-'/L	8aan'\L	.
8E-/	8an\	.
8FF/	8cc\	.
8E-/J	8a\J	.
=108	=108	=108
8DD'/L	8bb-'\L	.
8D/	8b-\	.
8FF/	8ff\	.
8D/J	8b-\J	.
8CC'/L	8ccc'\L	.
8C/	8cc\	.
8FF/	8ff\	.
8C/J	8cc\J	.
=109	=109	=109
8BBB-'/L	8ddd-'\L	.
8BB-/	8dd-\	.
8FF/	8ff\	.
8BB-/J	8dd-\J	.
8AAA-'/L	8dddn'\L	.
8AA-/	8ddn\	.
8FF/	8ff\	.
8AA-/J	8dd\J	.
=110	=110	=110
8GGG'/L	8eee-'\L	.
8GG/	8ee-\	.
8EE-/	8bb-\	.
8GG/J	8ee-\J	.
8GGG'/L	8eeen'\L	.
8GG/	8een\	.
8GGG/	8bb-\	.
8GG/J	8ee\J	.
=111	=111	=111
4AAA-'/ 4AA-'/	8r	.
.	8aa-\L	f
4r	8ccc\	.
.	8aa-\J	.
2r	8fff\L	.
.	8aa-\	.
.	8ccc\	.
.	8aa-\J	.
=112	=112	=112
4BBB-'/ 4BB-'/	8r	.
.	8ff\L	.
4r	8aa-\	.
.	8ff\J	.
2r	8ddd\L	.
.	8ff\	.
.	8aa-\	.
.	8ff\J	.
=113	=113	=113
4EE-'/ 4E-'/	4gg\	.
*clefG2	*	*
4e-/ 4g/	(2eee-\	p
4e-/ 4g/	.	.
4e-/ 4g/	8ddd\L	.
.	8eee-\J	.
=114	=114	=114
*^	*	*
4r	1c	8fff\L	.
.	.	8eee-\	.
4e-/ 4g/	.	8ddd\	.
.	.	8ccc\J	.
4e-/ 4g/	.	8bbn\L	.
.	.	8ccc\	.
4e-/ 4g/	.	8ddd\	.
.	.	8ccc\J	.
=115	=115	=115	=115
4r	1A-	8bb-\L	.
.	.	8aa-\	.
4e-/ 4f/	.	8gg\	.
.	.	8ff\J	.
4e-/ 4f/	.	8een\L	.
.	.	8ff\	.
4e-/ 4f/	.	8gg\	.
.	.	8ff\J	.
=116	=116	=116	=116
4r	1B-	8ee-\L	.
.	.	8dd\	.
4d/ 4f/	.	8cc\	.
.	.	8b-\J	.
4d/ 4f/	.	8an/L	.
.	.	8b-/	.
4d/ 4f/	.	8cc/	.
.	.	8a-/J	.
*v	*v	*	*
*clefF4	*	*
=117	=117	=117
*^	*	*
4r	1E-	4g'/)	.
4G/ 4e-/	.	2ee-\ (2eee-\	.
4G/ 4e-/	.	.	.
4G/ 4e-/	.	8ddd\L	.
.	.	8eee-\J	.
=118	=118	=118	=118
4r	1C	8fff\L	.
.	.	8eee-\	.
4E-/ 4G/ 4c/	.	8ddd\	.
.	.	8ccc\J	.
4E-/ 4G/ 4c/	.	8bbn\L	.
.	.	8ccc\	.
4E-/ 4G/ 4c/	.	8ddd\	.
.	.	8ccc\J	.
=119	=119	=119	=119
4r	1AA-	8bb-\L	.
.	.	8aa-\	.
4E-/ 4F/ 4A-/	.	8gg\	.
.	.	8ff\J	.
4E-/ 4F/ 4A-/	.	8een\L	.
.	.	8ff\	.
4E-/ 4F/ 4A-/	.	8gg\	.
.	.	8ff\J	.
=120	=120	=120	=120
4r	1BB-	8ee-\L	.
.	.	8dd\	.
4D/ 4F/ 4B-/	.	8cc\	.
.	.	8b-\J	.
4D/ 4F/ 4B-/	.	8an\L	.
.	.	8b-\	.
4D/ 4F/ 4B-/	.	8cc\	.
.	.	8b-\J	.
*v	*v	*	*
=121	=121	=121
8EE-/L	4ee-'\)	.
8E-/	.	.
8EE-/	2e-/	f
8E-/J	.	.
8EE-/L	.	.
8E-/	.	.
8EE-/	4d-'/ 4g'/	.
8E-/J	.	.
=122	=122	=122
8EE-/L	4c'/ 4a-'/	.
8E-/	.	.
8EE-/	4g'/ 4b-'/	.
8E-/J	.	.
8EE-/L	4a-'\ 4cc'\	.
8E-/	.	.
8EE-/	4a-'\ 4dd'\	.
8E-/J	.	.
=123	=123	=123
8EE-/L	4g'\ 4ee-'\	.
8E-/	.	.
8EE-/	2ee-\	.
8E-/J	.	.
8EE-/L	.	.
8E-/	.	.
8EE-/	4dd-'\ 4gg'\	.
8E-/J	.	.
=124	=124	=124
8EE-/L	4cc'\ 4aa-'\	.
8E-/	.	.
8EE-/	4gg'\ 4bb-'\	.
8E-/J	.	.
8EE-/L	4aa-'\ 4ccc'\	.
8E-/	.	.
8EE-/	4aa-'\ 4ddd'\	.
8E-/J	.	.
=125	=125	=125
8EE-/L	1gg 1eee-	f
8E-/	.	.
8EE-/	.	.
8E-/J	.	.
8EE-/L	.	.
8E-/	.	.
8EE-/	.	.
8E-/J	.	.
=126	=126	=126
8DD/L	1g 1ee-	.
8D/	.	.
8DD/	.	.
8D/J	.	.
8DD/L	.	.
8D/	.	.
8DD/	.	.
8D/J	.	.
=127	=127	=127
8CC/L	1gg 1eee-	.
8C/	.	.
8CC/	.	.
8C/J	.	.
8CC/L	.	.
8C/	.	.
8CC/	.	.
8C/J	.	.
=128	=128	=128
8BBB-/L	1g 1ee-	.
8BB-/	.	.
8BBB-/	.	.
8BB-/J	.	.
8BBB-/L	.	.
8BB-/	.	.
8BBB-/	.	.
8BB-/J	.	.
=129	=129	=129
8AAA-/L	1ccc 1eee-	f
8AA-/	.	.
8AAA-/	.	.
8AA-/J	.	.
8AAA-/L	.	.
8AA-/	.	.
8AAA-/	.	.
8AA-/J	.	.
=130	=130	=130
8GGG/L	1cc 1ee-	f
8GG/	.	.
8GGG/	.	.
8GG/J	.	.
8GGG/L	.	.
8GG/	.	.
8GGG/	.	.
8GG/J	.	.
=131	=131	=131
*>A1	*>A1	*>A1
1FFF# 1FF#	1aan 1ccc 1ddd	f
=132	=132	=132
1GGG 1GG	1F; 1Bn; 1d;	.
=133:|!	=133:|!	=133:|!
*>A2	*>A2	*>A2
1FFF# 1FF#	1aan 1ccc 1ddd	.
=134	=134	=134
1FF#; 1F#;	1An 1d	ff
=135	=135	=135
*>B	*>B	*>B
*met(c)	*met(c)	*met(c)
*M4/4	*M4/4	*M4/4
*MM40	*MM40	*MM40
[4GGG/ [4BBB-/ [4DD/ [4GG/	[4G/ [4B-/ [4d/ [4g/	.
16.GGG/] 16.BBB-/] 16.DD/] 16.GG/LL]	16.G/] 16.B-/] 16.d/] 16.g/LL]	.
32B-/k	32d/ 32g/k	.
16.An/	16.d/ 16.f#/ 16.an/	.
32G/JJk	32d/ 32b-/JJk	.
(4c#\	(4en/ 4g/ 4b-/	.
8d\)	8f#/) 8a/	.
16.r	8r	.
32E-\	.	.
=136	=136	=136
[4e-\	[4f#/ [4an/ [4cc/	.
16.e-\LL]	16.f#/] 16.a/] 16.cc/LL]	.
32e-\k	32f#/ 32a/ 32cc/k	.
16.d\	16.f#/ 16.a/ 16.dd/	.
32c\JJk	32f#/ 32a/ 32ee-/JJk	.
4.B-\	4f#\ 4a\ (4ee-\	.
.	8g\ 8b-\ 8dd\)	.
16.r	8r	.
32E-\	.	.
=137	=137	=137
[4e-\	[4f#/ [4an/ [4cc/	.
16.e-\LL]	16.f#/] 16.a/] 16.cc/LL]	.
32e-\k	32f#/ 32a/ 32cc/k	.
16.d\	16.f#/ 16.a/ 16.dd/	.
32c\JJk	32f#/ 32a/ 32dd#/JJk	.
(8c\	(4f#/ 4a/ 4dd#/	p
4Bn\)	.	.
.	4en/ 4g/ 4een/	.
(8B\	.	.
=138	=138	=138
8Bn\)	4d#/ 4f#/ 4an/	>
4BBn/	.	.
.	4Bn/ 4en/ 4g/	.
4BB/	.	.
.	4An/ 4c/ 4d#/ 4f#/	.
4BBBn/	.	.
.	4F#;/) 4A;/ 4d#;/	p
8BBB/	.	.
=139	=139	=139
*k[]	*k[]	*k[]
*M2/2	*M2/2	*M2/2
*MM320	*MM320	*MM320
8EE/L	4e'/	p
8E/	.	.
8EE/	4a'/	.
8E/J	.	.
8EE/L	4g'/	.
8E/	.	.
8EE/	4a'\ 4dd#'\	.
8E/J	.	.
=140	=140	=140
8EE/L	4g'\ 4ee'\	.
8E/	.	.
8EE/	4dd#'\ 4aa'\	.
8E/J	.	.
8EE/L	4ee'\ 4gg'\	.
8E/	.	.
8EE/	4aa'\ 4ddd#'\	.
8E/J	.	.
=141	=141	=141
4EE/ 4E/	4gg'\ 4eee'\	f
4G\ 4B\	4r	.
4G\ 4B\	4e/ 4ee/	.
4G\ 4B\	4r	.
=142	=142	=142
4E\	4r	.
4G\ 4B\	4e'/ 4ee'/	p
4G\ 4B\	4f#'\ 4ff#'\	.
4G\ 4B\	4g'\ 4gg'\	.
=143	=143	=143
4E\	2g\ (2gg\	.
4A\ 4c\	.	.
4A\ 4c\	4f#\ 4ff#\)	.
4A\ 4c\	4r	.
=144	=144	=144
4E-\	4r	.
4A\ 4c\	4f#'\ 4ff#'\	.
4A\ 4c\	4g'\ 4gg'\	.
4A\ 4c\	4a'\ 4aa'\	.
=145	=145	=145
8DD/L	4a'\ 4aa'\	.
8D/	.	.
8DD/	4g'/	.
8D/J	.	.
8DD/L	4f#'/	.
8D/	.	.
8DD/	4g'/ 4cc#'/	.
8D/J	.	.
=146	=146	=146
8DD/L	4f#'/ 4dd'/	.
8D/	.	.
8DD/	4cc#'\ 4gg'\	.
8D/J	.	.
8DD/L	4dd'\ 4ff#'\	.
8D/	.	.
8DD/	4gg'\ 4ccc#'\	.
8D/J	.	.
=147	=147	=147
4DD/ 4D/	4ff#'\ 4ddd'\	f
4A\ 4c\	4r	.
4A\ 4c\	4f#\ 4ff#\	.
4A\ 4c\	4r	.
=148	=148	=148
4D\	4r	.
4A\ 4c\	4f#'\ 4ff#'\	p
4A\ 4c\	4g'\ 4gg'\	.
4A\ 4c\	4a'\ 4aa'\	.
=149	=149	=149
4D\	2a\ (2aa\	.
4G\ 4B-\	.	.
4G\ 4B-\	4g\ 4gg\)	.
4G\ 4B-\	4r	.
=150	=150	=150
4D-\	4r	.
4G\ 4B-\	4g'\ 4gg'\	.
4G\ 4B-\	4a'\ 4aa'\	.
4G\ 4B-\	4b-'\ 4bb-'\	.
=151	=151	=151
4CC/ 4C/	8b-\L	.
.	8bb-\	.
(4D-\	8b-\	.
.	8bb-\J	.
4C/)	8b-\L	.
.	8bb-\	.
(4F\	8b-\	.
.	8bb-\J	.
=152	=152	=152
4E\)	8b-\L	.
.	8bb-\	.
(4d-\	8b-\	.
.	8bb-\J	.
4c\)	8b-\L	.
.	8bb-\	.
(4f\	8b-\	.
.	8bb-\J	.
=153	=153	=153
4e\)	8b-\L	.
.	8bb-\	.
(4f#\	8b-\	.
.	8bb-\J	.
4g\)	8b-\L	.
.	8bb-\	.
4r	8b-\	.
.	8bb-\J	.
=154	=154	=154
1r	8b-\L	.
.	8bb-\	.
.	8b-\	.
.	8bb-\J	.
.	8b-\L	.
.	8bb-\	.
.	8b-\	.
.	8bb-\J	.
=155	=155	=155
4r	8a\L	.
.	8aa\	.
(4GG-/	8a\	.
.	8aa\J	.
4FF/)	8a\L	.
.	8aa\	.
(4D-\	8a\	.
.	8aa\J	.
=156	=156	=156
4C/)	8a\L	.
.	8aa\	.
(4G-\	8a\	.
.	8aa\J	.
4F\)	8a\L	.
.	8aa\	.
(4d-\	8a\	.
.	8aa\J	.
=157	=157	=157
4c\)	8a\L	.
.	8aa\	.
(4e\	8a\	.
.	8aa\J	.
4f\)	8a\L	.
.	8aa\	.
4r	8a\	.
.	8aa\J	.
=158	=158	=158
1r	8a\L	.
.	8aa\	.
.	8a\	.
.	8aa\J	.
.	8a\L	.
.	8aa\	.
.	8a\	.
.	8aa\J	.
=159	=159	=159
4r	8a-\L	.
.	8aa-\	.
(4C/	8a-\	.
.	8aa-\J	.
4BB/	8a-\L	.
.	8aa-\	.
4D'\)	8a-\	.
.	8aa-\J	.
=160	=160	=160
4F\	8a-\L	.
.	8aa-\	.
(4c\	8a-\	.
.	8aa-\J	.
4B\	8a-\L	.
.	8aa-\	.
4d'\)	8a-\	.
.	8aa-\J	.
=161	=161	=161
4f'\	8a-\L	.
.	8aa-\	.
4r	8a-\	.
.	8aa-\J	.
4d'\	8a-\L	.
.	8aa-\	.
4r	8a-\	.
.	8aa-\J	.
=162	=162	=162
4B'\	8a-\L	.
.	8aa-\	.
4r	8g\	.
.	8gg\J	.
4G'\	8g\L	.
.	8gg\	.
4r	8f\	.
.	8ff\J	.
=163	=163	=163
4D-\ 4d-\	8f\L	.
.	8ff\	.
4r	8e\	.
.	8ee\J	.
4BB-\ 4B-\	8e/L	.
.	8ee/	.
4r	8d-/	.
.	8dd-/J	.
=164	=164	=164
4GG/ 4G/	8d-/L	.
.	8dd-/	.
4r	8c/	.
.	8cc/J	.
4EE/ 4E/	8c/L	.
.	8cc/	.
4r	8B-/	.
.	8b-/J	.
=165	=165	=165
4FF/ 4F/	8B-/L	p
.	8b-/	.
4r	8A-/	.
.	8a-/J	.
2r	8A-/L	.
.	8a-/	.
.	8G/	.
.	8g/J	.
*	*clefF4	*clefF4
=166	=166	=166
4FFF/ 4FF/	8G\L	.
.	8g\	.
4r	8F\	.
.	8f\J	.
2r	8F\L	.
.	8f\	.
.	8E-\	.
.	8e-\J	.
=167	=167	=167
4FFF#/ 4FF#/	8E-\L	.
.	8e-\	.
4r	8D\	.
.	8d\J	.
2r	8D\L	.
.	8d\	.
.	8E-\	.
.	8e-\J	.
=168	=168	=168
4FFF#/ 4FF#/	8E-\L	.
.	8e-\	.
4r	8D\	.
.	8d\J	.
2r	8D\L	.
.	8d\	.
.	8C\	.
.	8c\J	.
=169	=169	=169
8GGG/L	4BB'\ 4B'\	.
8GG/	.	.
8GGG/	4r	.
8GG/J	.	.
8GGG/L	(8C#\L	pp
8GG/	8A-\	.
8GGG/	8E\	.
8GG/J	8C#\J	.
=170	=170	=170
8GGG/L	8D\L	.
8GG/	8A-\	.
8GGG/	8F\	.
8GG/J	8D\J	.
8GGG/L	8Cn\L	.
8GG/	8A-\	.
8GGG/	8E-\	.
8GG/J	8C\J	.
=171	=171	=171
8GGG/L	8BB/L	.
8GG/	8G/	.
8GGG/	8D/	.
8GG/J	8BB/J	.
8GGG/L	8C#\L	.
8GG/	8A-\	.
8GGG/	8En\	.
8GG/J	8C#\J	.
=172	=172	=172
8GGG/L	8D\L	.
8GG/	8A-\	.
8GGG/	8F\	.
8GG/J	8D\J	.
8GGG/L	8Cn\L	.
8GG/	8A-\	.
8GGG/	8E-\	.
8GG/J	8C\J	.
=173	=173	=173
8GGG/L	4BB\ 4D\ 4G\)	.
8GG/	.	.
*	*clefG2	*clefG2
8GGG/	4e'/	.
8GG/J	.	.
8GGG/L	4f'/	.
8GG/	.	.
8GGG/	4e'/ 4cc#'/	.
8GG/J	.	.
=174	=174	=174
8GGG/L	4f'/ 4dd'/	.
8GG/	.	.
8GGG/	4cc#'\ 4ee'\	.
8GG/J	.	.
8GGG/L	4dd'\ 4ff'\	.
8GG/	.	.
8GGG/	4ee'\ 4ccc#'\	.
8GG/J	.	.
=175	=175	=175
*^	*	*
4GGG/	(2GGG\	4ff'\ 4ddd'\	.
2GG/	.	4ccc#'\ 4eee'\	.
.	2BBB\	[2ddd\ [2fff\	.
4GG/	.	.	.
=176	=176	=176	=176
4GG/	2CC\	2ddd\] 2fff\]	.
2GG/	.	.	.
.	2FFF#\)	2ccc\ 2eee-\	.
4GG/	.	.	.
*v	*v	*	*
=177	=177	=177
8GGG/L	4bb\ 4ddd\	.
8GG/	.	.
8GGG/	4r	.
8GG/J	.	.
*	*clefF4	*clefF4
8GGG/L	(8C#\L	pp
8GG/	8A-\	.
8GGG/	8E\	.
8GG/J	8C#\J	.
=178	=178	=178
8GGG/L	8D\L	.
8GG/	8A-\	.
8GGG/	8F\	.
8GG/J	8D\J	.
8GGG/L	8Cn\L	.
8GG/	8A-\	.
8GGG/	8E-\	.
8GG/J	8C\J	.
=179	=179	=179
8GGG/L	8BB/L	.
8GG/	8G/	.
8GGG/	8D/	.
8GG/J	8BB/J	.
8GGG/L	8C#\L	.
8GG/	8A-\	.
8GGG/	8En\	.
8GG/J	8C#\J	.
=180	=180	=180
8GGG/L	8D\L	.
8GG/	8A-\	.
8GGG/	8F\	.
8GG/J	8D\J	.
8GGG/L	8Cn\L	.
8GG/	8A-\	.
8GGG/	8E-\	.
8GG/J	8C\J	.
=181	=181	=181
8GGG/L	4BB\ 4D\ 4G\)	.
8GG/	.	.
*	*clefG2	*clefG2
8GGG/	4e'/	.
8GG/J	.	.
8GGG/L	4f'/	.
8GG/	.	.
8GGG/	4e'/ 4cc#'/	.
8GG/J	.	.
=182	=182	=182
8GGG/L	4f'/ 4dd'/	.
8GG/	.	.
8GGG/	4cc#'\ 4ee'\	.
8GG/J	.	.
8GGG/L	4dd'\ 4ff'\	.
8GG/	.	.
8GGG/	4ee'\ 4ccc#'\	.
8GG/J	.	.
=183	=183	=183
*^	*	*
4GGG/	(2GGG\	4ff'\ 4ddd'\	.
2GG/	.	4ccc#'\ 4eee'\	.
.	2BBB\	[2ddd\ [2fff\	.
[4GG/	.	.	.
=184	=184	=184	=184
4GG/]	2CC\	2ddd\] 2fff\]	.
2GG/	.	.	.
.	2FFF#\)	2ccc\ 2eee-\	.
4GG/	.	.	.
=185	=185	=185	=185
4GGG/	(2GGG\	4bb'\ 4ddd'\	.
2GG/	.	4ccc#'\ 4eee'\	.
.	2BBB\	[2ddd\ [2fff\	.
[4GG/	.	.	.
=186	=186	=186	=186
4GG/]	2CC\	2ddd\] 2fff\]	.
2GG/	.	.	.
.	2FFF#\)	2ccc\ 2eee-\	.
4GG/	.	.	.
=187	=187	=187	=187
4GGG/	(2GGG\	4bb'\ 4ddd'\	.
2GG/	.	4ccc#'\ 4eee'\	.
.	2BBB\	[2ddd\ [2fff\	.
[4GG/	.	.	.
=188	=188	=188	=188
4GG/]	2CC\	2ddd\] 2fff\]	.
2GG/	.	.	.
.	2FFF#\)	2ccc\ 2eee-\	.
4GG/	.	.	.
*v	*v	*	*
=189	=189	=189
4GGG/	8bb'\ 8ddd'\L	.
.	8fff\	.
4r	8ddd\	.
.	8ccc\J	.
2r	8bb\L	.
.	8fff\	.
.	8ddd\	.
.	8ccc\J	.
=190	=190	=190
1r	8bb\L	.
.	8fff\	.
.	8ddd\	.
.	8ccc\J	.
.	8bb\L	.
.	8ddd\	.
.	8bb\	.
.	8gg\J	.
=191	=191	=191
1r	8aa-\L	.
.	8bb-\	.
.	8aa-\	.
.	8gg\J	.
.	8ff\L	.
.	8aa-\	.
.	8ff\	.
.	8ee-\J	.
=192	=192	=192
1r	8dd\L	.
.	8ff\	.
.	8dd\	.
.	8cc\J	.
.	8bn\L	.
.	8dd\	.
.	8b\	.
.	8g\J	.
=193	=193	=193
1r	8a-/L	.
.	8b-/	.
.	8a-/	.
.	8g/J	.
.	8f/L	.
.	8a-/	.
.	8f/	.
.	8e-/J	.
=194	=194	=194
1r	8d/L	.
.	8f/	.
.	8d/	.
.	8c/J	.
*	*clefF4	*clefF4
.	8Bn\L	.
.	8d\	.
.	8B\	.
.	8G\J	.
=195	=195	=195
1r	8A-\L	.
.	8B-\	.
.	8A-\	.
.	8G\J	.
.	8F\L	.
.	8E-\	.
.	8D\	.
.	8C\J	.
=196	=196	=196
2r	8BBn/L	.
.	8C/	.
.	8BB/	.
.	8AA-/J	.
8GG/L	2r	.
8FF/	.	.
8EE-/	.	.
8DD/J	.	.
*	*clefG2	*clefG2
*k[b-e-a-]	*k[b-e-a-]	*k[b-e-a-]
=197	=197	=197
8CC/L	2.c/	p
8C/	.	.
8CC/	.	.
8C/J	.	.
8CC/L	.	.
8C/	.	.
8CC/	4B-'/ 4en'/	.
8C/J	.	.
=198	=198	=198
8CC/L	4A-'/ 4f'/	.
8C/	.	.
8CC/	4en'/ 4g'/	.
8C/J	.	.
8CC/L	4f'/ 4a-'/	.
8C/	.	.
8CC/	4d'/ 4bn'/	.
8C/J	.	.
=199	=199	=199
8CC/L	4e-'/ 4cc'/	.
8C/	.	.
8CC/	2en/ 2cc/	.
8C/J	.	.
8CC/L	.	.
8C/	.	.
8CC/	4b-'\ 4een'\	.
8C/J	.	.
=200	=200	=200
8CC/L	4a-'\ 4ff'\	.
8C/	.	.
8CC/	4een'\ 4gg'\	.
8C/J	.	.
8CC/L	4ff'\ 4aa-'\	.
8C/	.	.
8CC/	4dd'\ 4bbn'\	.
8C/J	.	.
=201	=201	=201
8CC/L	2cc'\ 2ee-'\ 2gg'\ 2ccc'\	.
8C/	.	.
8CC/	.	.
8C/J	.	.
8DD/L	2g'\ 2bn'\ 2ff'\ 2gg'\	.
8D/	.	.
8DD/	.	.
8D/J	.	.
=202	=202	=202
8EE-/L	2g'\ 2cc'\ 2ee-'\	.
8E-/	.	.
8EE-/	.	.
8E-/J	.	.
8FF/L	2f'/ 2a-'/ 2dd'/	.
8F/	.	.
8FF/	.	.
8F/J	.	.
=203	=203	=203
*	*^	*
8GG/L	1e- ([1cc	2g\	.
8G/	.	.	.
8GG/	.	.	.
8G/J	.	.	.
8AA-\L	.	2f#\	.
8A-\	.	.	.
8AA-\	.	.	.
8A-\J	.	.	.
=204	=204	=204	=204
8FF#/L	2e-/ 2cc/]	2an\	>
8F#/	.	.	.
8FF#/	.	.	.
8F#/J	.	.	.
8GG/L	2d/ 2f/ 2bn/	2r	.
8G/	.	.	.
8GG/	.	.	.
8G/J	.	.	.
*	*v	*v	*
=205	=205	=205
8CC/L	4c'/ 4e-'/ 4cc'/)	p
8C/	.	.
8CC/	2c/	.
8C/J	.	.
8CC/L	.	.
8C/	.	.
8CC/	4B-'/ 4en'/	.
8C/J	.	.
=206	=206	=206
8CC/L	4A-'/ 4f'/	.
8C/	.	.
8CC/	4en'/ 4g'/	.
8C/J	.	.
8CC/L	4f'/ 4a-'/	.
8C/	.	.
8CC/	4d'/ 4bn'/	.
8C/J	.	.
=207	=207	=207
8CC/L	4e-'/ 4cc'/	.
8C/	.	.
8CC/	2en/ 2cc/	.
8C/J	.	.
8CC/L	.	.
8C/	.	.
8CC/	4b-'\ 4een'\	.
8C/J	.	.
=208	=208	=208
8CC/L	4a-'\ 4ff'\	.
8C/	.	.
8CC/	4een'\ 4gg'\	.
8C/J	.	.
8CC/L	4ff'\ 4aa-'\	.
8C/	.	.
8CC/	4dd'\ 4bbn'\	.
8C/J	.	.
=209	=209	=209
8CC/L	2cc'\ 2ee-'\ 2gg'\ 2ccc'\	.
8C/	.	.
8CC/	.	.
8C/J	.	.
8CC/L	2a-'\ 2ee-'\ 2aa-'\	.
8C/	.	.
8CC/	.	.
8C/J	.	.
=210	=210	=210
8DD-/L	2a-'\ 2dd-'\ 2ff'\	.
8D-/	.	.
8DD-/	.	.
8D-/J	.	.
8EE-/L	2g-'\ 2cc'\ 2ee-'\	.
8E-/	.	.
8EE-/	.	.
8E-/J	.	.
=211	=211	=211
8FF/L	2f'/ 2a-'/ 2dd-'/	.
8F/	.	.
8FF/	.	.
8F/J	.	.
8GG-/L	2d-'/ 2g-'/ 2b-'/	.
8G-/	.	.
8GG-/	.	.
8G-/J	.	.
=212	=212	=212
*	*^	*
8AA-\L	1a-	(2d-\ 2f\	.
8A-\	.	.	.
8AA-\	.	.	.
8A-\J	.	.	.
8AA-\L	.	2c\) 2e-\	.
8A-\	.	.	.
8AA-\	.	.	.
8A-\J	.	.	.
*	*v	*v	*
=213	=213	=213
8AA-\L	2d'/ 2f'/ 2b-'/	p
8A-\	.	.
8AA-\	.	.
8A-\J	.	.
8DD/L	2b-'\ 2ff'\ 2bb-'\	<
8D/	.	.
8DD/	.	.
8D/J	.	.
=214	=214	=214
8EE-/L	2b-'\ 2ee-'\ 2gg-'\	.
8E-/	.	.
8EE-/	.	.
8E-/J	.	.
8FF/L	2a-'\ 2dd'\ 2ff'\	.
8F/	.	.
8FF/	.	.
8F/J	.	.
=215	=215	=215
8GG-/L	2g-'\ 2b-'\ 2ee-'\	.
8G-/	.	.
8GG-/	.	.
8G-/J	.	.
8AA-\L	2e-'/ 2a-'/ 2cc-'/	.
8A-\	.	.
8AA-\	.	.
8A-\J	.	.
=216	=216	=216
*	*^	*
8BB-\L	1b-	(2e-\ 2g-\	.
8B-\	.	.	.
8BB-\	.	.	.
8B-\J	.	.	.
8BB-\L	.	2d\) 2f\	.
8B-\	.	.	.
8BB-\	.	.	.
8B-\J	.	.	.
*	*v	*v	*
=217	=217	=217
8BB-\L	2en'/ 2g'/ 2cc'/	p
8B-\	.	.
8BB-\	.	.
8B-\J	.	.
8EEn/L	2cc'\ 2gg'\ 2ccc'\	.
8En/	.	.
8EE/	.	.
8E/J	.	.
=218	=218	=218
8FF/L	2cc'\ 2ff'\ 2aa-'\	.
8F/	.	.
8FF/	.	.
8F/J	.	.
8GG/L	2b-'\ 2een'\ 2gg'\	.
8G/	.	.
8GG/	.	.
8G/J	.	.
=219	=219	=219
8AA-\L	2a-'\ 2cc'\ 2ff'\	.
8A-\	.	.
8AA-\	.	.
8A-\J	.	.
8BB-\L	2f'/ 2dd-'/	.
8B-\	.	.
8BB-\	.	.
8B-\J	.	.
=220	=220	=220
8C\L	2f'/ 2cc'/	.
8c\	.	.
8C\	.	.
8c\J	.	.
8D-\L	2f'/ 2bn'/	.
8d-\	.	.
8D-\	.	.
8d-\J	.	.
=221	=221	=221
4C\ 4c\	4en/ 4cc/	.
4r	(4Bn/	p
2r	4c/	.
.	4B/	.
=222	=222	=222
1r	4c/	.
.	4Bn/	.
.	4c/	.
.	4B/)	.
*clefG2	*	*
=223	=223	=223
*^	*	*
4r	1c	4r	.
*	*	*clefF4	*clefF4
4f/ 4a-/	.	4C'/	.
4f/ 4a-/	.	4F'\	.
4f/ 4a-/	.	4G'\	.
=224	=224	=224	=224
4r	1c	4A-'\	.
*	*	*clefG2	*clefG2
4f/ 4a-/	.	4cc'\	.
4f/ 4a-/	.	4ff'\	.
4f/ 4a-/	.	4gg'\	.
=225	=225	=225	=225
.	.	ccq/	.
4r	1c	(2.aa-\	.
4f/ 4a-/	.	.	.
4f/ 4a-/	.	.	.
4f/ 4a-/	.	4ff\)	.
=226	=226	=226	=226
.	.	ccq/	.
4r	1c	(2.aa-\	.
4f/ 4a-/	.	.	.
4f/ 4a-/	.	.	.
4f/ 4a-/	.	4ff\)	.
=227	=227	=227	=227
4r	1c	4een'\	.
*	*	*clefF4	*clefF4
4g/ 4b-/	.	4C'/	.
4g/ 4b-/	.	4G'\	.
4g/ 4b-/	.	4A-'\	.
=228	=228	=228	=228
4r	1c	4B-'\	.
*	*	*clefG2	*clefG2
4g/ 4b-/	.	(4cc\	.
4g/ 4b-/	.	4bb-\	.
4g/ 4b-/	.	4aa-\)	.
=229	=229	=229	=229
4r	1c	(4aa-\	.
4g/ 4b-/	.	4gg\)	.
4g/ 4b-/	.	(4gg\	.
4g/ 4b-/	.	4ff\)	.
=230	=230	=230	=230
4r	1c	(4ff\	.
4g/ 4b-/	.	4een\)	.
4g/ 4b-/	.	4dd'\	.
4g/ 4b-/	.	4ee'\	.
=231	=231	=231	=231
4r	1c	4ff'\	.
*	*	*clefF4	*clefF4
4f/ 4a-/	.	4C'/	.
4f/ 4a-/	.	4F'\	.
4f/ 4a-/	.	4G'\	.
=232	=232	=232	=232
4r	1c	4A-'\	.
*	*	*clefG2	*clefG2
4f/ 4a-/	.	4cc'\	.
4f/ 4a-/	.	4ff'\	.
4f/ 4a-/	.	4aa-'\	.
=233	=233	=233	=233
.	.	ccq/	.
4r	1A-	(2.ccc\	.
4c/ 4f/	.	.	.
4c/ 4f/	.	.	.
4c/ 4f/	.	4ff\)	.
=234	=234	=234	=234
.	.	ffq/	.
4r	1A-	(2.fff\	.
4c/ 4f/	.	.	.
4c/ 4f/	.	.	.
4c/ 4f/	.	4ccc\)	.
=235	=235	=235	=235
4r	1G	4bbn'\	.
*	*	*clefF4	*clefF4
4d/ 4f/	.	4GG'/	.
4d/ 4f/	.	4D'\	.
4d/ 4f/	.	4E-'\	.
=236	=236	=236	=236
4r	1G	4F'\	.
*	*	*clefG2	*clefG2
4d/ 4f/	.	(4g/	.
4d/ 4f/	.	4ff\	.
4d/ 4f/	.	4ee-\)	.
=237	=237	=237	=237
4r	1G	(4ee-\	.
4d/ 4f/	.	4dd\)	.
4d/ 4f/	.	(4dd\	.
4d/ 4f/	.	4cc\)	.
=238	=238	=238	=238
4r	1G	(4cc\	.
4d/ 4f/	.	4bn\)	.
4d/ 4f/	.	4an'/	.
4d/ 4f/	.	4b'\	.
=239	=239	=239	=239
4r	1G	4cc'\	.
*	*	*clefF4	*clefF4
4c/ 4e-/	.	4GG'/	.
4c/ 4e-/	.	4C'/	.
4c/ 4e-/	.	4D'\	.
=240	=240	=240	=240
4r	1G	4E-'\	.
*	*	*clefG2	*clefG2
4c/ 4e-/	.	4gg'\	.
4c/ 4e-/	.	4ccc'\	.
4c/ 4e-/	.	4ddd'\	.
=241	=241	=241	=241
.	.	ggq/	.
4r	1G	(2.eee-\	.
4c/ 4e-/	.	.	.
4c/ 4e-/	.	.	.
4c/ 4e-/	.	4ccc\)	.
=242	=242	=242	=242
.	.	ggq/	.
4r	1G	(2.eee-\	.
4c/ 4e-/	.	.	.
4c/ 4e-/	.	.	.
4c/ 4e-/	.	4ccc\)	.
=243	=243	=243	=243
4r	1G	4bbn'\	.
*	*	*clefF4	*clefF4
4d/ 4f/	.	4GG'/	.
4d/ 4f/	.	4D'\	.
4d/ 4f/	.	4E-'\	.
=244	=244	=244	=244
4r	1G	4F'\	.
*	*	*clefG2	*clefG2
4d/ 4f/	.	(4gg\	.
4d/ 4f/	.	4fff\	.
4d/ 4f/	.	4eee-\)	.
=245	=245	=245	=245
4r	1G	(4eee-\	.
4d/ 4f/	.	4ddd\)	.
4d/ 4f/	.	(4ddd\	.
4d/ 4f/	.	4ccc\)	.
=246	=246	=246	=246
4r	1G	(4ccc\	.
4d/ 4f/	.	4bbn\)	.
4d/ 4f/	.	(4aan\	.
4d/ 4f/	.	4bb\)	.
=247	=247	=247	=247
4r	1c	(4ddd\	.
4e-/ 4g/	.	4ccc\)	.
4e-/ 4g/	.	(4ccc\	.
4e-/ 4g/	.	4bb-\)	.
=248	=248	=248	=248
4r	1F	(4bb-\	.
4e-/ 4f/	.	4aan\)	.
4e-/ 4f/	.	(4gg\	.
4e-/ 4f/	.	4aa\)	.
=249	=249	=249	=249
4r	1B-	(4ccc\	.
4d-/ 4f/	.	4bb-\)	.
4d-/ 4f/	.	(4bb-\	.
4d-/ 4f/	.	4aa-\)	.
=250	=250	=250	=250
4r	1E-	(4aa-\	.
4d-/ 4e-/	.	4gg\)	.
4d-/ 4e-/	.	(4ff\	.
4d-/ 4e-/	.	4gg\)	.
=251	=251	=251	=251
4r	1A-	(4bb-\	.
4c/ 4e-/	.	4aa-\)	.
4c/ 4e-/	.	(4aa-\	.
4c/ 4e-/	.	4gg\)	.
=252	=252	=252	=252
4r	1A-	(4gg\	.
4c/ 4e-/	.	4ff#\)	.
4c/ 4e-/	.	4ff#'\	.
4c/ 4e-/	.	4ff#'\	.
=253	=253	=253	=253
4r	1G	(4aa-\	pp
4c/ 4e-/	.	4gg\)	.
4c/ 4e-/	.	4gg'\	.
4c/ 4e-/	.	4gg'\	.
=254	=254	=254	=254
4r	1G	(4aa-\	.
4Bn/ 4d/	.	4gg\)	.
4B/ 4d/	.	4gg'\	.
4B/ 4d/	.	4gg'\	.
*v	*v	*	*
*clefF4	*	*
=255	=255	=255
*^	*^	*
8r	[1C	2r	8r	.
8G/L	.	.	8c\L	p
8E-/	.	.	8e-\	.
8G/J	.	.	8c\J	.
8E-/L	.	[2cc/	8cc\L	.
8G/	.	.	8c\	.
8E-/	.	.	8e-\	.
8G/J	.	.	8c\J	.
=256	=256	=256	=256	=256
8E-/L	2C\]	2cc/]	8e-\L	.
8G/	.	.	8c\	.
8E-/	.	.	8e-\	.
8G/J	.	.	8c\J	.
8r	2C\	2cc/	8r	.
8G/L	.	.	8c\L	.
8E-/	.	.	8e-\	.
8G/J	.	.	8c\J	.
=257	=257	=257	=257	=257
8r	1BB-	2r	8r	.
8G/L	.	.	8d-\L	.
8En/	.	.	8en\	.
8G/J	.	.	8d-\J	.
8E/L	.	[2dd-/	8dd-\L	.
8G/	.	.	8d-\	.
8E/	.	.	8e\	.
8G/J	.	.	8d-\J	.
=258	=258	=258	=258	=258
8En/L	2BB-\	2dd-/]	8en\L	.
8G/	.	.	8d-\	.
8E/	.	.	8e\	.
8G/J	.	.	8d-\J	.
8r	2BB-\	2dd-/	8dd-\L	.
8G/L	.	.	8d-\	.
8E/	.	.	8e\	.
8G/J	.	.	8d-\J	.
*v	*v	*	*	*
*	*v	*v	*
=259	=259	=259
8AA-'\L	8cc'/L	.
8F\	8c/	.
8C\	8f/	.
8F\J	8c/J	.
8BB-'\L	8een'/L	.
8G\	8en/	.
8C\	8cc/	.
8G\J	8e/J	.
=260	=260	=260
8AA-'\L	8ff'/L	.
8F\	8f/	.
8C\	8cc/	.
8F\J	8f/J	.
8GG'\L	8gg'\L	.
8G\	8g\	.
8C\	8cc\	.
8G\J	8g\J	.
=261	=261	=261
8FF'/L	8aa-'\L	.
8F/	8a-\	.
8C/	8cc\	.
8F/J	8a-\J	.
8EE-'/L	8aan'\L	.
8E-/	8an\	.
8C/	8cc\	.
8E-/J	8a\J	.
=262	=262	=262
8DD'/L	8bbn'\L	.
8D/	8bn\	.
8GG/	8ff\	.
8D/J	8b\J	.
8CC'/L	8ccc'\L	.
8C/	8cc\	.
8GG/	8ff\	.
8C/J	8cc\J	.
=263	=263	=263
8BBBn'/L	8ddd'\L	.
8BBn/	8dd\	.
8GG/	8ff\	.
8BB/J	8dd\J	.
8BBB-'/L	8eeen'\L	.
8BB-/	8een\	.
8CC/	8gg\	.
8BB-/J	8ee\J	.
=264	=264	=264
8AAA-'/L	8fff'\L	.
8AA-/	8ff\	.
8CC/	8aa-\	.
8AA-/J	8ff\J	.
8FFF'/L	8ddd'\L	.
8FF/	8ff\	.
8CC/	8aa-\	.
8FF/J	8ff\J	.
=265	=265	=265
4GGG/ 4GG/	8r	.
.	8ee-\L	f
4r	8gg\	.
.	8ee-\J	.
2r	8ccc\L	.
.	8ee-\	.
.	8gg\	.
.	8ee-\J	.
=266	=266	=266
4GG/ 4G/	8r	.
.	8dd\L	.
4r	8ff\	.
.	8dd\J	.
2r	8bbn\L	.
.	8dd\	.
.	8ff\	.
.	8dd\J	.
=267	=267	=267
*^	*^	*
8r	[1C	2r	8r	.
8G/L	.	.	8c\L	p
8E-/	.	.	8e-\	.
8G/J	.	.	8c\J	.
8E-/L	.	[2cc/	8cc\L	.
8G/	.	.	8c\	.
8E-/	.	.	8e-\	.
8G/J	.	.	8c\J	.
=268	=268	=268	=268	=268
8E-/L	2C\]	2cc/]	8e-\L	.
8G/	.	.	8c\	.
8E-/	.	.	8e-\	.
8G/J	.	.	8c\J	.
8r	2C\	2cc/	8r	.
8G/L	.	.	8c\L	.
8E-/	.	.	8e-\	.
8G/J	.	.	8c\J	.
=269	=269	=269	=269	=269
8r	1BB-	2r	8r	.
8G/L	.	.	8d-\L	.
8En/	.	.	8en\	.
8G/J	.	.	8d-\J	.
8E/L	.	[2dd-/	8dd-\L	.
8G/	.	.	8d-\	.
8E/	.	.	8e\	.
8G/J	.	.	8d-\J	.
=270	=270	=270	=270	=270
8En/L	2BB-\	2dd-/]	8en\L	.
8G/	.	.	8d-\	.
8E/	.	.	8e\	.
8G/J	.	.	8d-\J	.
8r	2BB-\	2dd-/	8dd-\L	.
8G/L	.	.	8d-\	.
8E/	.	.	8e\	.
8G/J	.	.	8d-\J	.
*v	*v	*	*	*
*	*v	*v	*
=271	=271	=271
8AA-'\L	8cc'/L	.
8F\	8c/	.
8C\	8f/	.
8F\J	8c/J	.
8BB-'\L	8een'/L	.
8G\	8en/	.
8C\	8cc/	.
8G\J	8e/J	.
=272	=272	=272
8AA-'\L	8ff'/L	.
8F\	8f/	.
8C\	8cc/	.
8F\J	8f/J	.
8GG'\L	8gg'\L	.
8G\	8g\	.
8C\	8cc\	.
8G\J	8g\J	.
=273	=273	=273
8FF'/L	8aa-'\L	.
8F/	8a-\	.
8C/	8cc\	.
8F/J	8a-\J	.
8EE-'/L	8aan'\L	.
8E-/	8an\	.
8C/	8cc\	.
8E-/J	8a\J	.
=274	=274	=274
8DD'/L	8bbn'\L	.
8D/	8bn\	.
8GG/	8ff\	.
8D/J	8b\J	.
8CC'/L	8ccc'\L	.
8C/	8cc\	.
8GG/	8ff\	.
8C/J	8cc\J	.
=275	=275	=275
8BBBn'/L	8ddd'\L	.
8BBn/	8dd\	.
8GG/	8ff\	.
8BB/J	8dd\J	.
8BBB-'/L	8eeen'\L	.
8BB-/	8een\	.
8CC/	8gg\	.
8BB-/J	8ee\J	.
=276	=276	=276
8AAA-'/L	8fff'\L	.
8AA-/	8ff\	.
8CC/	8aa-\	.
8AA-/J	8ff\J	.
8FFF'/L	8ddd'\L	.
8FF/	8ff\	.
8CC/	8aa-\	.
8FF/J	8ff\J	.
=277	=277	=277
4GGG/ 4GG/	8r	.
.	8ee-\L	f
4r	8gg\	.
.	8ee-\J	.
2r	8ccc\L	.
.	8ee-\	.
.	8gg\	.
.	8ee-\J	.
=278	=278	=278
4GG/ 4G/	8r	.
.	8dd\L	.
4r	8ff\	.
.	8dd\J	.
2r	8bbn\L	.
.	8dd\	.
.	8ff\	.
.	8dd\J	.
=279	=279	=279
4C/	4cc\	.
4c\ 4e-\	(2ccc\	p
4c\ 4e-\	.	.
4c\ 4e-\	8bbn\L	.
.	8ccc\J	.
=280	=280	=280
*^	*	*
4r	1A-	8ddd\L	.
.	.	8ccc\	.
4c/ 4e-/	.	8bb-\	.
.	.	8aa-\J	.
4c/ 4e-/	.	8gg\L	.
.	.	8aa-\	.
4c/ 4e-/	.	8bb-\	.
.	.	8aa-\J	.
=281	=281	=281	=281
4r	1F	8gg\L	.
.	.	8ff\	.
4c/ 4d/	.	8ee-\	.
.	.	8dd\J	.
4c/ 4d/	.	8cc#\L	.
.	.	8dd\	.
4c/ 4d/	.	8ee-\	.
.	.	8dd\J	.
=282	=282	=282	=282
4r	1G	8ccn/L	.
.	.	8bn/	.
4Bn/ 4d/	.	8a-/	.
.	.	8g/J	.
4B/ 4d/	.	8f#/L	.
.	.	8g/	.
4B/ 4d/	.	8a-/	.
.	.	8fn/J	.
=283	=283	=283	=283
4r	1C	4e-'/)	.
4E-/ 4c/	.	2cc\ (2ccc\	.
4E-/ 4c/	.	.	.
4E-/ 4c/	.	8bbn\L	.
.	.	8ccc\J	.
=284	=284	=284	=284
4r	1AA-	8ddd\L	.
.	.	8ccc\	.
4C/ 4E-/ 4A-/	.	8bb-\	.
.	.	8aa-\J	.
4C/ 4E-/ 4A-/	.	8gg\L	.
.	.	8aa-\	.
4C/ 4E-/ 4A-/	.	8bb-\	.
.	.	8aa-\J	.
=285	=285	=285	=285
4r	1FF	8gg\L	.
.	.	8ff\	.
4C/ 4D/ 4F/	.	8ee-\	.
.	.	8dd\J	.
4C/ 4D/ 4F/	.	8cc#\L	.
.	.	8dd\	.
4C/ 4D/ 4F/	.	8ee-\	.
.	.	8dd\J	.
=286	=286	=286	=286
4r	1GG	8ccn/L	.
.	.	8bn/	.
4BBn/ 4D/ 4G/	.	8a-/	.
.	.	8g/J	.
4BB/ 4D/ 4G/	.	8f#/L	.
.	.	8g/	.
4BB/ 4D/ 4G/	.	8a-/	.
.	.	8g/J	.
*v	*v	*	*
=287	=287	=287
8CC/L	4cc'\)	.
8C/	.	.
8CC/	2c/	f
8C/J	.	.
8CC/L	.	.
8C/	.	.
8CC/	4B-'/ 4en'/	.
8C/J	.	.
=288	=288	=288
8CC/L	4A-'/ 4f'/	.
8C/	.	.
8CC/	4en'/ 4g'/	.
8C/J	.	.
8CC/L	4f'/ 4a-'/	.
8C/	.	.
8CC/	4d'/ 4bn'/	.
8C/J	.	.
=289	=289	=289
8CC/L	4e-'/ 4cc'/	.
8C/	.	.
8CC/	2en/ 2cc/	.
8C/J	.	.
8CC/L	.	.
8C/	.	.
8CC/	4b-'\ 4een'\	.
8C/J	.	.
=290	=290	=290
8CC/L	4a-'\ 4ff'\	.
8C/	.	.
8CC/	4een'\ 4gg'\	.
8C/J	.	.
8CC/L	4ff'\ 4aa-'\	.
8C/	.	.
8CC/	4dd'\ 4bbn'\	.
8C/J	.	.
=291	=291	=291
8CC/L	1cc 1ee- 1ccc	f
8C/	.	.
8CC/	.	.
8C/J	.	.
8CC/L	.	.
8C/	.	.
8CC/	.	.
8C/J	.	.
=292	=292	=292
8BBB-/L	1c 1e- 1cc	.
8BB-/	.	.
8BBB-/	.	.
8BB-/J	.	.
8BBB-/L	.	.
8BB-/	.	.
8BBB-/	.	.
8BB-/J	.	.
=293	=293	=293
8AAA-/L	1cc 1ee- 1ccc	.
8AA-/	.	.
8AAA-/	.	.
8AA-/J	.	.
8AAA-/L	.	.
8AA-/	.	.
8AAA-/	.	.
8AA-/J	.	.
=294	=294	=294
8GGG/L	1c 1e- 1cc	.
8GG/	.	.
8GGG/	.	.
8GG/J	.	.
8GGG/L	.	.
8GG/	.	.
8GGG/	.	.
8GG/J	.	.
=295	=295	=295
1FFF# 1FF#	1ee- 1aan 1ccc 1eee-	ff
=296	=296	=296
1FF# 1AAn 1C 1E-	1F#; 1An; 1c; 1e-;	.
=297	=297	=297
*met(c)	*met(c)	*met(c)
*M4/4	*M4/4	*M4/4
*MM40	*MM40	*MM40
4r	4r	.
16r	16r	.
32e-\LLK	32f#/ 32an/ 32cc/LLK	p
16.d\	16.f#/ 16.a/ 16.dd/	.
32c\JJk	32f#/ 32a/ 32ee-/JJk	.
(4c\	4f#\ 4a\ (4ee-\	.
8Bn\)	8g\ 8bn\ 8dd\)	.
8r	8r	.
*clefG2	*	*
=298	=298	=298
4r	4r	.
16.r	16.r	.
32a-/LLK	32bn\ 32dd\ 32ff\LLK	.
16.g/	16.b\ 16.dd\ 16.gg\	.
32f/JJk	32b\ 32dd\ 32aa-\JJk	.
(4f/	4b\ 4dd\ (4aa-\	.
8e-/)	8cc\ 8ee-\ 8gg\)	.
8r	8r	.
=299	=299	=299
4r	4r	.
16.r	16.r	.
32d-/ 32en/ 32g/LLK	32b-\ 32een\ 32gg\ 32bb-\LLK	<
16.c/ 16.e/ 16.g/	16.cc\ 16.ee\ 16.gg\ 16.ccc\	.
32B-/ 32e/ 32g/JJk	32dd-\ 32ee\ 32gg\ 32ddd-\JJk	.
[4A-/ 4B-/ 4e/ 4g/	4dd-\ 4ee\ 4gg\ 4ddd-\	.
8A-/] 8c/ 8f/ 8a-/L	8cc\ (8ccc\L	.
8G/ 8c/ 8e-/J	8b-\ 8bb-\J	.
*clefF4	*	*
=300	=300	=300
8F\ 8c\ 8f\L	8a-\ 8aa-\L	>
8E-\ 8G\ 8c\	8g\ 8gg\	.
8D\ 8G\ 8Bn\	8f\ 8ff\	.
8C\ 8G\ 8c\J	8e-\ 8ee-\J)	.
8F\	8r	.
8r	8f/ 8a-/ 8dd/	pp
8GGG/ 8GG/	8r	.
8D\ 8F\ 8B\	8r	.
=301	=301	=301
*M2/2	*M2/2	*M2/2
*MM320	*MM320	*MM320
8CC/L	2.c/	p
8C/	.	.
8CC/	.	.
8C/J	.	.
8CC/L	.	.
8C/	.	.
8CC/	4B-'/ 4en'/	.
8C/J	.	.
=302	=302	=302
8CC/L	4A-'/ 4f'/	.
8C/	.	.
8CC/	4en'/ 4g'/	.
8C/J	.	.
8CC/L	4f'/ 4a-'/	.
8C/	.	.
8CC/	4d'/ 4bn'/	.
8C/J	.	.
=303	=303	=303
8CC/L	4e-'/ 4cc'/	.
8C/	.	.
8CC/	2en/ 2cc/	.
8C/J	.	.
8CC/L	.	.
8C/	.	.
8CC/	4b-'\ 4een'\	.
8C/J	.	.
=304	=304	=304
8CC/L	4a-'\ 4ff'\	.
8C/	.	.
8CC/	4een'\ 4gg'\	.
8C/J	.	.
8CC/L	4ff'\ 4aa-'\	.
8C/	.	.
8CC/	4dd'\ 4bbn'\	.
8C/J	.	.
=305	=305	=305
8CC/L	2ee-'\ 2ccc'\	.
8C/	.	.
8CC/	.	.
8C/J	.	.
8BBB-/L	2cc'\ 2ee-'\ 2ccc'\	.
8BB-/	.	.
8BBB-/	.	.
8BB-/J	.	.
=306	=306	=306
8AAA-/L	2cc'\ 2ee-'\ 2ccc'\	.
8AA-/	.	.
8AAA-/	.	.
8AA-/J	.	.
8GGG/L	2cc'\ 2ee-'\ 2ccc'\	.
8GG/	.	.
8GGG/	.	.
8GG/J	.	.
=307	=307	=307
4FFF#/ 4FF#/	4ee-\ 4aan\ 4ccc\ 4eee-\	ff
4r	4r	.
2r	2r	.
=308	=308	=308
4F#\ 4An\ 4c\ 4e-\	4f#\ 4an\ 4cc\ 4ee-\	.
4r	4r	.
2r	2r	.
=309	=309	=309
4G\ 4c\ 4e-\	4g\ 4cc\ 4ee-\ 4gg\	.
4r	4r	.
2r	2r	.
*	*clefF4	*clefF4
=310	=310	=310
4GGG/ 4BBBn/ 4DD/ 4GG/	4D\ 4F\ 4G\ 4Bn\	ff
4r	4r	.
2r	2r	.
=311	=311	=311
4CC/ 4EE-/ 4GG/ 4C/	4E-'\ 4G'\ 4c'\	.
4r	4r	.
2r	2r	.
=312	=312	=312
1r;	1r;	.
==	==	==
*-	*-	*-
!!!ENC: Craig Stuart Sapp
!!!END: 2008/02/25/
!!!hum2abc: -s 0.65 --spacing 1.2
